X:9
T:Bonaparte's Retreat
R:set dance
D:Paddy Glackin: Ceol ar an bhFidil le Paddy Glackin
Z:id:hn-setdance-9
M:C|
K:G
DGGF GBAG|FAde fefg|agfa gfde|fdcA (3BAG (3cAF|
DGGF GBAG|FAde fefg|agfd cAFG|1 AGGF G2 (3GFE:|2 AGGF G2de||
|:fefg f2 (3def|gfga gfde|fgag fdcA|(3GFG AF GFED|
f2fg f2 (3def|gfga g2fg|agbg ag (3fga|g2 (3agf g2fg|
agbg agfd|f2fa gfde|fgag fdcA|(3GFG AF GFDC|
DGGF GBAG|FAde fefg|agfa gfde|fdcA BGAF|
DGGF GBAG|FAde fefg|agfd cAFG|1 (3ABA GF G2de:|2 (3ABA GF G2 (3GFE||
<end>
<start>
